X: 1
T: Boscastle Breakdown, The
M: 4/4
L: 1/8
R: hornpipe
K: Gmaj
|: (3DEF | G2 B>c d2 G2 | c>de>f g2 (3DEF | G2 B>c d>GB>G | A2 F2 (3DEc B>A |
G2 (3ABc d>BG>B | c>de>f g2 (3ABc | d>gf>e (3ded (3cBA | G2 B2 G2 :|
|: (3Bcd | g>dB>d g>dB>d | g>ec>e g>ec>e | g>dB>d g>dB>d | f>Ad>A f>Ad>a |
g>dB>d g2 (3Bcd | g>ec>e g4 | d>g (3gfe d>cB>A | G2 (3ggg g2 :|
